lib/brands/icons/kronos.svg

<svg xmlns="http://www.w3.org/2000/svg" fill="none" aria-hidden="true" viewBox="0 0 48 48"><g id="kronos-Icon"><g id="Union"><path fill="#F03B25" d="M20.6735 16.8025C23.8665 16.8025 24.6241 15.9657 25.4314 15.0739C25.4907 15.0085 25.5503 14.9427 25.6111 14.8769C25.6808 14.8769 30.9672 7.37458 30.9672 7.37458C30.9672 7.37458 31.3112 7.51295 31.7201 7.72051C31.7201 7.72051 28.6308 12.1229 24.6526 17.6299C24.0352 18.4563 22.8663 19.8323 20.6024 19.8323H6.53464C6.73852 18.9679 7.01565 18.1799 7.25695 17.4937C7.34263 17.2501 7.42379 17.0193 7.49555 16.8025H20.6735Z"/><path fill="#F03B25" d="M10.4465 12.1921H17.8599C18.9163 12.1921 19.6121 11.3773 20.0936 10.8134C20.206 10.6818 20.3068 10.5638 20.3977 10.473C20.3977 10.5403 23.6235 6 23.6235 6C19.1629 6.06726 14.1523 7.85648 10.4465 12.1916V12.1921Z"/><path fill="#F03B25" d="M6.329 20.5842H21.7016C21.7191 20.5842 21.7462 20.5848 21.7822 20.5855C22.4508 20.599 26.1795 20.6742 27.741 18.4558C29.4562 16.1126 34.3313 9.23346 34.3313 9.23346C34.5371 9.35734 34.6181 9.43241 34.7112 9.51875C34.7715 9.57473 34.837 9.63545 34.9449 9.71728C34.9449 9.71728 26.782 21.1377 26.782 21.205C25.3392 23.1268 23.0056 23.612 21.1549 23.612H6.05322C6.05322 22.7856 6.12289 21.6133 6.329 20.5804V20.5842Z"/><path fill="#F03B25" d="M41.9466 24.0269C41.9462 28.5665 40.3703 32.7603 37.4178 35.8588L30.8303 26.7114C30.2105 25.8851 29.1117 24.5081 27.3278 24.0281C29.0787 23.4868 30.1696 22.1521 30.7954 21.3865L30.8303 21.3438L37.4173 12.1229C40.3703 15.2215 41.9462 19.4152 41.9466 24.0269Z"/><path fill="#F03B25" d="M19.85 13.0185H9.75945V13.019C8.93595 14.0471 8.11341 15.426 7.90778 15.9786H19.1629C20.6033 15.9079 21.7689 15.2877 22.8663 13.5691C22.9364 13.4989 28.0139 6.41223 28.0139 6.41223L27.124 6.27289L23.6888 11.0246C23.6888 11.0246 22.2494 13.0857 19.85 13.0185Z"/><path fill="#F03B25" d="M21.7016 27.4033H6.329V27.4086C6.12289 26.3708 6.05322 25.2081 6.05322 24.3769H21.1549C23.0056 24.3769 25.3392 24.8574 26.782 26.784C26.782 26.8513 34.9449 38.2717 34.9449 38.2717C34.8345 38.3542 34.7686 38.4152 34.707 38.4721C34.6157 38.5566 34.5341 38.632 34.3314 38.7555C34.3314 38.7555 29.4562 31.8715 27.741 29.5365C26.1601 27.3533 22.3577 27.3961 21.7587 27.4028C21.7342 27.4031 21.715 27.4033 21.7016 27.4033Z"/><path fill="#F03B25" d="M7.49603 31.1797H20.6735C23.8616 31.1797 24.6218 32.0181 25.4277 32.9069C25.4882 32.9737 25.549 33.0407 25.6111 33.1077C25.6808 33.1077 30.9672 40.6115 30.9672 40.6115C30.9672 40.6115 31.3112 40.477 31.7201 40.2704C31.7201 40.2704 28.6308 35.8646 24.6526 30.3634C24.0352 29.537 22.8663 28.1581 20.6024 28.1581C20.6024 28.2302 6.53464 28.1581 6.53464 28.1581C6.74008 29.035 7.0207 29.8292 7.2637 30.5169L7.26373 30.517C7.34693 30.7525 7.42571 30.9754 7.49555 31.185L7.49603 31.1797Z"/><path fill="#F03B25" d="M10.4465 35.8021H17.8599C18.9169 35.8021 19.6129 36.6179 20.0945 37.1823C20.2065 37.3137 20.307 37.4315 20.3977 37.5222L23.6235 42C19.1629 41.9279 14.1523 40.1406 10.4465 35.8069V35.8021Z"/><path fill="#F03B25" d="M19.8499 34.9685H9.75944C8.93594 33.9375 8.31903 32.8344 7.90776 32.0089H19.1629C20.6033 32.0791 21.7689 32.696 22.8662 34.4179C22.9364 34.4876 28.0138 41.5729 28.0138 41.5729L27.124 41.7122L23.6888 36.9663C23.6888 36.9663 22.2493 34.9685 19.8499 34.9685Z"/></g></g></svg>

<svg xmlns="http://www.w3.org/2000/svg" fill="none" aria-hidden="true" viewBox="0 0 48 48"><path fill="#F03B25" d="M20.674 16.802c3.193 0 3.95-.836 4.758-1.728.059-.066.118-.131.18-.197.069 0 5.355-7.502 5.355-7.502s.344.138.753.346c0 0-3.09 4.402-7.067 9.909-.618.826-1.787 2.202-4.05 2.202H6.534c.204-.864.48-1.652.722-2.338.086-.244.167-.475.239-.692h13.178Zm-10.227-4.61h7.413c1.056 0 1.752-.815 2.234-1.379.112-.131.213-.25.304-.34 0 .067 3.226-4.473 3.226-4.473-4.461.067-9.472 1.856-13.177 6.192Z"/><path fill="#F03B25" d="M6.33 20.584h15.372c.017 0 .044 0 .08.002.669.013 4.398.088 5.96-2.13 1.714-2.343 6.59-9.223 6.59-9.223.205.124.286.2.38.286.06.056.125.116.233.198 0 0-8.163 11.42-8.163 11.488-1.443 1.922-3.776 2.407-5.627 2.407H6.053c0-.826.07-1.999.276-3.032v.004Zm35.617 3.443c0 4.54-1.577 8.733-4.53 11.832L30.83 26.71c-.62-.826-1.718-2.203-3.502-2.683 1.75-.541 2.842-1.876 3.468-2.641l.034-.043 6.587-9.221c2.953 3.099 4.53 7.292 4.53 11.904Z"/><path fill="#F03B25" d="M19.85 13.018H9.76v.001c-.824 1.028-1.646 2.407-1.852 2.96h11.255c1.44-.071 2.606-.691 3.703-2.41.07-.07 5.148-7.157 5.148-7.157l-.89-.14-3.435 4.753s-1.44 2.06-3.839 1.993Zm1.852 14.385H6.329v.006c-.206-1.038-.276-2.2-.276-3.032h15.102c1.85 0 4.184.48 5.627 2.407 0 .067 8.163 11.488 8.163 11.488-.11.082-.176.143-.238.2a1.94 1.94 0 0 1-.376.283s-4.875-6.884-6.59-9.219c-1.58-2.183-5.383-2.14-5.982-2.133h-.057Z"/><path fill="#F03B25" d="M7.496 31.18h13.178c3.188 0 3.948.838 4.754 1.727.06.067.121.134.183.2.07 0 5.356 7.505 5.356 7.505s.344-.135.753-.342c0 0-3.09-4.405-7.067-9.907-.618-.826-1.787-2.205-4.05-2.205 0 .072-14.068 0-14.068 0 .205.877.486 1.671.729 2.359.083.236.162.458.232.668v-.005Zm2.951 4.622h7.413c1.057 0 1.753.816 2.235 1.38.112.132.212.25.303.34L23.624 42c-4.461-.072-9.472-1.86-13.177-6.193v-.005Z"/><path fill="#F03B25" d="M19.85 34.968H9.76c-.824-1.03-1.44-2.134-1.852-2.96h11.255c1.44.071 2.606.688 3.703 2.41.07.07 5.148 7.155 5.148 7.155l-.89.14-3.435-4.747s-1.44-1.998-3.839-1.998Z"/></svg>
